X:1
T:The Old Woman Tossed Up
T:(Old Gordon)
M:6/8
L:1/8
C:Traditional
P:A.(A2B2)4.A
Q:C3=80
K:G Major
P:A
"A"|: D | G2 G GBd | efg dBG | AGA BAB | E2 F G2 :|
P:B
"B"|: c | d2 d Bcd | efg dBG |
dcd Bcd | efg d3 | d2 c Bcd | efg dBG | AGA BAB | E2F G2 :|
